!!!!SEGMENT: pl-kk--kk-i-474--001-007_studzinski-piotr--quarta-missa-dona.krn
!!!cenid: 18xx:1390
!!!COM: Studziński, Piotr
!!!COM-rismid: pe50044409
!!!CDT: 1825/10/16-1869/04/20
!!!CNT: Polish
!!!OPR: Quarta Missa
!!!OTL: Dona
!!!OMV: 007
!!!PDT: 1856
!!!AGN: Sacred; Mass
!!!SMS-siglum: PL-Kk
!!!SMS-shelfmark: Kk.I.474
!!!SMS-shelfwork: 001-007 M
!!!SMS-variant: Alto: PL-Kk Kk.I.474: 0020
!!!SMS-altvar: Alto: PL-Kk Kk.I.474: 0017
!!!NIFC-rismid: 1001140244
!!!URL-scan: http://repozytorium.nifc.pl/skany/pl-kk-nut--i-474
!!!ONB-nifc: UWAGA: części Mszy: 1. Kyrie, 2. Gloria, 3. Credo, 4. Sanctus, 5. Benedictus, 6. Agnus, 7. Dona. Uwaga: Gloria zapisana osobno na ostatnich stronach
!!!AIN: 1 alto 1 empty 1 organ 1 soprn 1 tenor
!!!key:
**kern	**text	**dynam	**kern	**text	**dynam	**kern	**text	**dynam	**kern	**text	**dynam	**kern	**text	**dynam	**kern	**text	**dynam
*part5	*part5	*part5	*part5	*part5	*part5	*part4	*part4	*part4	*part3	*part3	*part3	*part2	*part2	*part2	*part1	*part1	*part1
*group	*group	*group	*group	*group	*group	*group1	*group1	*group1	*group1	*group1	*group1	*group1	*group1	*group1	*group1	*group1	*group1
*staff6	*staff6	*	*staff5	*staff5	*	*staff4	*staff4	*	*staff3	*staff3	*	*staff2	*staff2	*	*staff1	*staff1	*
*Iorgan	*	*	*Iempty	*	*	*Iempty	*	*	*Itenor	*	*	*Ialto	*	*	*Isoprn	*	*
*I"Organo.	*	*	*	*	*	*I"Basſo Duo	*	*	*I"Tenor	*	*	*I"Alto.	*	*	*I"Soprano	*	*
*I'org	*	*	*	*	*	*I'B	*	*	*I'T	*	*	*I'A	*	*	*I'S	*	*
*clefF4	*	*	*clefG2	*	*	*clefF4	*	*	*clefC4	*	*	*clefG2	*	*	*clefG2	*	*
*k[]	*	*	*k[]	*	*	*k[]	*	*	*k[]	*	*	*k[]	*	*	*k[]	*	*
*c:	*	*	*c:	*	*	*c:	*	*	*c:	*	*	*c:	*	*	*c:	*	*
*	*	*	*	*	*	*	*	*	*	*	*	*	*	*	*	*	*
*M3/4	*	*	*M3/4	*	*	*M3/4	*	*	*M3/4	*	*	*M3/4	*	*	*M3/4	*	*
=1	=1	=1	=1	=1	=1	=1	=1	=1	=1	=1	=1	=1	=1	=1	=1	=1	=1
*^	*	*	*	*	*	*	*	*	*	*	*	*	*	*	*	*	*
*	*	*	*	*^	*	*	*	*	*	*	*	*	*	*	*	*	*	*
*2\right	*2\right	*	*	*2\right	*2\right	*	*	*2\right	*	*	*2\right	*	*	*	*	*	*2\right	*	*below
!	!	!	!	!LO:TX:a:t=P:problem= nazwa części między pięcioliniami przed akoladą	!	!	!	!LO:TX:a:i:t=Allegretto	!	!	!	!	!	!	!	!	!LO:TX:a:i:t=allegretto	!	!
!	!	!	!	!LO:TX:a:i:t=Dona	!	!	!	!	!	!	!	!	!	!LO:TX:a:t=P:problem=kasowniki b, ee, a przy kluczu	!	!	!LO:TX:a:t=P:problem=kasowniki b, ee, a przy kluczu	!	!
!LO:TX:a:t=P:problem= nazwa instrumentu, oznaczenia agogiczne i dynamiczne zapisane w źródle czerwonym atramentem	!	!	!	!LO:TX:a:i:t=allegretto	!	!	!LO:DY:rj	!LO:TX:a:t=P:problem=kasowniki b, ee, a przy kluczu	!	!	!LO:TX:a:t=P:problem=kasowniki b, ee, a przy kluczu	!	!	!LO:TX:b:t=4	!	!	!	!	!
!LO:TX:a:t=P:problem= caudy z prawej strony (wyjątki)	!	!	!	!LO:TX:a:t=P:problem= caudy z prawej strony (wyjątki)	!LO:TX:a:t=P:problem= nazwa instrumentu, oznaczenia agogiczne i dynamiczne zapisane w źródle czerwonym atramentem	!	!	!LO:TX:a:t=P:problem= oznaczenia agogiczne, dynamiczne i artykulacyjne zapisane w źródle czerwonym atramentem	!	!	!	!	!	!LO:N:vis=00	!	!	!LO:TX:a:t=P:problem= oznaczenia agogiczne, dynamiczne i artykulacyjne zapisane w źródle czerwonym atramentem	!	!LO:DY:rj
2c/	2c\	Do-	.	2cc/	2cc\	.	p	2c\	Do-	.	2c\	Do-	.	0.r	.	.	2cc\	Do-	p
!	!	!	!	!	!	!	!	!	!	!	!LO:TX:a:t=P:problem= caudy z prawej strony (wyjątki)	!	!	!	!	!	!LO:TX:a:t=P:problem= caudy z prawej strony (wyjątki)	!	!
4B/	4B\	-na	.	4b/	4b\	.	.	4B\	-na	.	4B\	-na	.	.	.	.	4b\	-na	.
=2	=2	=2	=2	=2	=2	=2	=2	=2	=2	=2	=2	=2	=2	=2	=2	=2	=2	=2	=2
!	!	!	!	!	!	!	!	!LO:TX:a:t=P:problem=nazwa części na pięciolinii nad drugim taktem	!	!	!	!	!	!	!	!	!	!	!
!	!	!	!	!	!	!	!	!LO:TX:a:i:t=Dona	!	!	!	!	!	!	!	!	!	!	!
4A/	4A\	no-	.	4a/	4a\	.	.	(>4A\	no-	.	(>4A\	no-	.	.	.	.	(>4a\	no-	.
4B/	4B\	.	.	4b/	4b\	.	.	4B\)	.	.	4B\)	.	.	.	.	.	4b\)	.	.
4c/	4c\	-bis	.	4cc/	4cc\	.	.	4c\	-bis	.	4c\	-bis	.	.	.	.	4cc\	-bis	.
=3	=3	=3	=3	=3	=3	=3	=3	=3	=3	=3	=3	=3	=3	=3	=3	=3	=3	=3	=3
!	!	!	!	!	!	!	!	!	!	!	!LO:TX:a:i:t=Dona	!	!	!	!	!	!	!	!
!	!	!	!	!	!	!	!	!	!	!	!LO:TX:a:t=P:problem=nazwa części na pięciolinii powyżej 3. taktu	!	!	!	!	!	!	!	!
2d/	2d\	pa-	.	2dd/	2dd\	.	.	2d\	pa-	.	2d\	pa-	.	.	.	.	2dd\	pa-	.
4e\	4ryy	.	.	4ee/	4ee\	.	.	4e\	.	.	4e\	.	.	.	.	.	4ee\	.	.
*v	*v	*	*	*	*	*	*	*	*	*	*	*	*	*	*	*	*	*	*
=4	=4	=4	=4	=4	=4	=4	=4	=4	=4	=4	=4	=4	=4	=4	=4	=4	=4	=4
!LO:N:vis=2.	!	!	!	!	!	!	!	!	!	!	!	!	!	!	!	!	!	!
2c\	-cem	.	2.cc/	2cc\	.	.	2c\	-cem	.	2c\	-cem	.	.	.	.	2cc\	-cem	.
4r	.	.	.	4ra	.	pp	4r	.	.	4r	.	.	.	.	.	4r	.	.
*	*	*	*v	*v	*	*	*	*	*	*	*	*	*	*	*	*	*	*
=5	=5	=5	=5	=5	=5	=5	=5	=5	=5	=5	=5	=5	=5	=5	=5	=5	=5
*	*	*	*	*	*	*	*	*below	*	*	*	*	*	*	*	*	*
!	!	!	!	!	!	!	!	!LO:DY:rj	!	!	!	!LO:TX:a:i:t=allegretto.	!	!	!	!	!
!	!	!	!	!	!	!	!	!	!	!	!	!LO:TX:a:t=P:problem= oznaczenia agogiczne, dynamiczne i artykulacyjne zapisane w źródle czerwonym atramentem	!	!	!	!	!
2E 2C\	Do-	.	2cc 2c/	.	.	2C\	Do-	pp	2E/	Do-	.	2c/	Do-	.	2cc\	Do-	.
!	!	!	!	!	!	!LO:TX:a:t=P:problem= caudy z prawej strony (wyjątki)	!	!	!	!	!	!	!	!	!	!	!
4G 4C\	-na	.	4b 4c/	.	.	4C\	-na	.	4A/	-na	.	4c/	-na	.	4b\	-na	.
=6	=6	=6	=6	=6	=6	=6	=6	=6	=6	=6	=6	=6	=6	=6	=6	=6	=6
*^	*	*	*^	*	*	*	*	*	*	*	*	*	*	*	*	*	*
4F/	2C\	no-	.	4a/	2c\	.	.	2C\	no-	.	4F/	no-	.	2c/	no-	.	4a\	no-	.
4G/	.	.	.	4b/	.	.	.	.	.	.	4G/	.	.	.	.	.	4b\	.	.
!LO:N:vis=8	!	!	!	!	!	!	!	!	!	!	!	!	!	!	!	!	!	!	!
4A/	4C\	-bis	.	4cc/	4c\	.	.	4C\	-bis	.	4A/	-bis	.	4c/	-bis	.	4cc\	-bis	.
!LO:LB:g=original	!LO:LB:g=original	!	!	!LO:LB:g=original	!LO:LB:g=original	!	!	!LO:LB:g=original	!	!	!LO:LB:g=original	!	!	!	!	!	!LO:LB:g=original	!	!
=7	=7	=7	=7	=7	=7	=7	=7	=7	=7	=7	=7	=7	=7	=7	=7	=7	=7	=7	=7
4c/	2.G\	pa-	.	2dd/	2.f\	.	.	2.G\	pa-	.	4c\	pa-	.	2.f/	pa-	.	2dd\	pa-	.
2B/	.	.	.	.	.	.	.	.	.	.	2B\	.	.	.	.	.	.	.	.
.	.	.	.	4ee/	.	.	.	.	.	.	.	.	.	.	.	.	4ee\	.	.
*v	*v	*	*	*	*	*	*	*	*	*	*	*	*	*	*	*	*	*	*
*	*	*	*v	*v	*	*	*	*	*	*	*	*	*	*	*	*	*	*
=8	=8	=8	=8	=8	=8	=8	=8	=8	=8	=8	=8	=8	=8	=8	=8	=8	=8
2c 2C\	-cem	.	2cc 2e/	.	.	2C/	-cem	.	2c\	-cem	.	4e/	-cem	.	2cc\	-cem	.
.	.	.	.	.	.	.	.	.	.	.	.	4r	.	.	.	.	.
4r	.	.	4r	.	.	4r	.	.	4r	.	.	4r	.	.	4r	.	.
=9	=9	=9	=9	=9	=9	=9	=9	=9	=9	=9	=9	=9	=9	=9	=9	=9	=9
!	!	!	!	!	!LO:DY:rj:b:t=p.	!LO:TX:a:i:t=Solo	!	!	!LO:TX:b:t=4	!	!	!LO:TX:b:t=4	!	!	!LO:TX:b:t=4	!	!
!	!	!	!	!	!	!	!	!	!LO:N:vis=00	!	!	!LO:N:vis=00	!	!	!LO:N:vis=00	!	!
2G\	Do-	.	2.ryy	.	p	2G\	Do-	.	0.r	.	.	0.r	.	.	0.r	.	.
4G\	-na	.	.	.	.	4G\	-na	.	.	.	.	.	.	.	.	.	.
=10	=10	=10	=10	=10	=10	=10	=10	=10	=10	=10	=10	=10	=10	=10	=10	=10	=10
(>4A\	no-	.	2.ryy	.	.	(>4A\	no-	.	.	.	.	.	.	.	.	.	.
4G\)	.	.	.	.	.	4G\)	.	.	.	.	.	.	.	.	.	.	.
4F\	-bis	.	.	.	.	4F\	-bis	.	.	.	.	.	.	.	.	.	.
=11	=11	=11	=11	=11	=11	=11	=11	=11	=11	=11	=11	=11	=11	=11	=11	=11	=11
4E\	pa-	.	2.ryy	.	.	4E\	pa-	.	.	.	.	.	.	.	.	.	.
2G\	.	.	.	.	.	2G\	.	.	.	.	.	.	.	.	.	.	.
=12	=12	=12	=12	=12	=12	=12	=12	=12	=12	=12	=12	=12	=12	=12	=12	=12	=12
2D\	-cem	.	2.ryy	.	.	2D\	-cem	.	.	.	.	.	.	.	.	.	.
4r	.	.	.	.	ff	4r	.	.	.	.	.	.	.	.	.	.	.
=13	=13	=13	=13	=13	=13	=13	=13	=13	=13	=13	=13	=13	=13	=13	=13	=13	=13
*	*	*	*	*	*	*	*	*	*	*	*below	*	*	*below	*	*	*
!	!	!	!	!	!	!LO:TX:a:t=P:problem=dynamika na kresce taktowej	!	!LO:DY:rj	!LO:TX:a:t=P:problem=dynamika na kresce taktowej	!	!	!	!	!	!	!	!
!	!	!	!	!	!	!	!	!	!	!	!LO:DY:rj	!	!	!LO:DY:rj	!	!	!LO:DY:rj
2.B 2.D 2.GG\	Do-	.	2.dd 2.g 2.d\	.	.	2.D 2.GG/	Do-	ff	2.d 2.B\	Do-	ff	2.g/	Do-	f	2.dd\	Do-	f
!	!	!	!	!	!	!LO:LB:g=original	!	!	!	!	!	!	!	!	!	!	!
=14	=14	=14	=14	=14	=14	=14	=14	=14	=14	=14	=14	=14	=14	=14	=14	=14	=14
!	!	!	!	!	!	!	!	!	!LO:TX:a:t=P:problem= główka nuty c z prawej strony caudy	!	!	!	!	!	!	!	!
2c 2D 2AA\	.	.	2dd 2f#X 2d\	.	.	2D 2AA/	.	.	2d 2c\	.	.	2f#X/	.	.	2dd\	.	.
4d 4G 4BB\	-na	.	4dd 4g\	.	.	4G 4BB\	-na	.	4d 4B\	-na	.	4g/	-na	.	4dd\	-na	.
!LO:LB:g=original	!	!	!LO:LB:g=original	!	!	!	!	!	!	!	!	!LO:LB:g=original	!	!	!	!	!
=15	=15	=15	=15	=15	=15	=15	=15	=15	=15	=15	=15	=15	=15	=15	=15	=15	=15
*^	*	*	*	*	*	*	*	*	*	*	*	*	*	*	*	*	*
4c/	2C\	pa-	.	2ee 2g\	.	.	2G 2C\	pa-	.	(>4c\	pa-	.	2g/	pa-	.	2ee\	pa-	.
4G/	.	.	.	.	.	.	.	.	.	4G\)	.	.	.	.	.	.	.	.
8F#X/L	4D\	.	.	8ddL 8a\	.	.	4F#X 4D\	.	.	(<8F#X/L	.	.	(<8a/L	.	.	(>8dd\L	.	.
8A/J	.	.	.	8ccJ 8f#X\	.	.	.	.	.	8A/J)	.	.	8f#X/J)	.	.	8cc\J)	.	.
=16	=16	=16	=16	=16	=16	=16	=16	=16	=16	=16	=16	=16	=16	=16	=16	=16	=16	=16
*	*	*	*	*^	*	*	*	*	*	*	*	*	*	*	*	*	*	*
2G/	2GG\	-cem	.	2b 2g/	2ryy	.	.	2G 2GG\	-cem	.	2G/	-cem	.	2g/	-cem	.	4b\	-cem	.
.	.	.	.	.	.	.	.	.	.	.	.	.	.	.	.	.	4r	.	.
!	!	!	!	!	!	!	!	!LO:TX:a:i:t=Solo	!	!	!	!	!	!	!	!	!	!	!
4G/	4G\	Do-	.	4r	4re<	.	.	4G\	Do-	p	4r	.	.	4r	.	.	4r	.	.
*	*	*	*	*v	*v	*	*	*	*	*	*	*	*	*	*	*	*	*	*
!	!	!	!	!	!	!	!	!	!	!LO:LB:g=original	!	!	!	!	!	!LO:LB:g=original	!	!
=17	=17	=17	=17	=17	=17	=17	=17	=17	=17	=17	=17	=17	=17	=17	=17	=17	=17	=17
!	!	!	!	!	!	!	!	!	!	!	!	!	!	!	!	!LO:TX:b:t=1	!	!
8A/L	8A\L	.	.	2r	.	.	8A\L	.	.	4r	.	.	4r	.	.	2.r	.	.
8G/J	8G\J	-na	.	.	.	.	8G\J	-na	.	.	.	.	.	.	.	.	.	.
!	!LO:TX:b:t=P:problem=problemy z renderowaniem tekstu	!	!	!	!	!	!	!	!	!	!	!	!	!	!	!	!	!
4ryy	4F\	no-	.	.	.	.	4F\	no-	.	4r	.	.	4r	.	.	.	.	.
!	!	!	!	!LO:TX:b:t=P:problem=problemy z renderowaniem tekstu	!	!	!	!	!	!	!	!	!	!	!	!	!	!
4c/	4E\	-bis	.	4g/	Do-	.	4E\	-bis	.	4c\	Da	.	4g/	Do-	.	.	.	.
=18	=18	=18	=18	=18	=18	=18	=18	=18	=18	=18	=18	=18	=18	=18	=18	=18	=18	=18
*	*	*	*	*^	*	*	*	*	*	*	*	*	*	*	*	*	*	*
4c/	8F\L	pa-	.	4a-X/	8a-\L	.	.	8F\L	pa-	.	(>4c\	pa-	.	8a-X/L	.	.	4r	.	.
.	8E-X\J	.	.	.	8g\J	na	.	8E-X\J	.	.	.	.	.	8g/J	-na	.	.	.	.
!	!	!	!	!LO:N:vis=2	!	!	!	!	!	!	!	!	!	!	!	!	!	!	!
4B/	4D\	.	.	4r	4f\	no-	.	4D\	.	.	4B\)	.	.	4fn/	no-	.	4r	.	.
4c/	4C\	-cem	.	4ee-X/	4e-X\	-bis	.	4C\	-cem	.	4c\	-cem	.	4e-X/	-bis	.	4ee-X\	Do-	.
=19	=19	=19	=19	=19	=19	=19	=19	=19	=19	=19	=19	=19	=19	=19	=19	=19	=19	=19	=19
*	*^	*	*	*	*	*	*	*^	*	*	*	*	*	*	*	*	*	*	*
4d/	2G\	4BBn\	Do-	.	8gg/L	2g\	.	.	2G/	4BBn\	Do-	.	4d\	Do-	.	2g/	Do-	.	(>8gg\L	.	.
.	.	.	.	.	8ff/J	.	.	.	.	.	.	.	.	.	.	.	.	.	8ff\J)	-na	.
4Bn/	.	4D\	.	.	4ee-X/	.	.	.	.	4D\	.	.	4B\	.	.	.	.	.	4ee-X\	no-	.
4B/ 4G	4ryy	4F\	-na	.	4dd/	4g\	.	.	4G/	4F\	-na	.	4B\	-na	.	4g/	-na	.	4dd\	-bis	.
*	*v	*v	*	*	*	*	*	*	*v	*v	*	*	*	*	*	*	*	*	*	*	*
*v	*v	*	*	*	*	*	*	*	*	*	*	*	*	*	*	*	*	*	*
!	!	!	!	!	!	!	!LO:LB:g=original	!	!	!	!	!	!	!	!	!	!	!
=20	=20	=20	=20	=20	=20	=20	=20	=20	=20	=20	=20	=20	=20	=20	=20	=20	=20	=20
4c 4E-X\	pa-	.	8ff/L	4g\	.	.	4E-X\	pa-	.	4c\	pa-	.	4g/	pa-	.	(>8ff\L	pa-	.
.	.	.	8ee-X/J	.	.	.	.	.	.	.	.	.	.	.	.	8ee-X\J)	.	.
4d 4F\	-cem	.	4dd/	4a-X\	.	.	4F\	-cem	.	4d\	-cem	.	4a-X/	-cem	.	4dd\	-cem	.
4e-X 4F#X\	da	.	4cc/	4an\	.	.	4F#X\	da	.	4e-X\	da	.	4an/	da	.	4cc\	da	.
!	!	!	!	!	!	!	!	!	!	!	!	!	!LO:LB:g=original	!	!	!	!	!
=21	=21	=21	=21	=21	=21	=21	=21	=21	=21	=21	=21	=21	=21	=21	=21	=21	=21	=21
*^	*	*	*	*	*	*	*	*	*	*	*	*	*	*	*	*	*	*
2.e-X/	2G\	pa-	.	2.cc/	2g\	.	.	2G\	pa-	.	2.e-X\	pa-	.	2g/	pa-	.	2.cc\	pa-	.
.	4A-X\	.	.	.	4f#X\	.	.	4A-X\	.	.	.	.	.	4f#X/	.	.	.	.	.
*v	*v	*	*	*	*	*	*	*	*	*	*	*	*	*	*	*	*	*	*
*	*	*	*v	*v	*	*	*	*	*	*	*	*	*	*	*	*	*	*
=22	=22	=22	=22	=22	=22	=22	=22	=22	=22	=22	=22	=22	=22	=22	=22	=22	=22
2.d 2.G\	-cem	.	2.b 2.g;>/	.	.	2.G;<\	-cem	.	2.d;>\	-cem	.	2.g;>/	-cem	.	2b;>\	-cem	.
.	.	.	.	.	.	.	.	.	.	.	.	.	.	.	4ryy	.	.
!LO:LB:g=original	!	!	!LO:LB:g=original	!	!	!	!	!	!LO:PB:g=original	!	!	!	!	!	!	!	!
=23	=23	=23	=23	=23	=23	=23	=23	=23	=23	=23	=23	=23	=23	=23	=23	=23	=23
!	!	!	!	!	!	!	!	!LO:DY:rj	!	!	!	!	!	!LO:DY:rj	!	!	!
2c#X 2G\	Do-	.	2b-X 2e/	.	.	2G\	Do-	f	2c#X\	Do-	.	2e/	Do-	p	2b-X\	Do-	.
4c# 4G\	-na	.	4b- 4e/	.	.	4G\	-na	.	4c#\	-na	.	4e/	-na	.	4b-\	-na	.
!	!	!	!	!	!	!	!	!	!	!	!	!	!	!	!LO:LB:g=original	!	!
=24	=24	=24	=24	=24	=24	=24	=24	=24	=24	=24	=24	=24	=24	=24	=24	=24	=24
4d 4F\	no-	.	4a 4d/	.	.	4F\	no-	.	4d\	no-	.	4d/	no-	.	4a/	pa-	.
4A 4D\	-bis	.	4f 4d/	.	.	4D\	-bis	.	4A\	-bis	.	4d/	-bis	.	4f/	-cem	.
4r	.	.	4r	.	.	4r	.	.	4r	.	.	4r	.	.	4r	.	.
=25	=25	=25	=25	=25	=25	=25	=25	=25	=25	=25	=25	=25	=25	=25	=25	=25	=25
2Bn 2F\	Do-	.	2a-X 2d/	.	.	2F\	Do-	.	2Bn\	Do-	.	2d/	Do-	.	2a-X/	Do-	.
4B 4F\	-na	.	4a- 4d/	.	.	4F\	-na	.	4B\	-na	.	4d/	-na	.	4a-/	-na	.
!	!	!	!	!	!	!LO:LB:g=original	!	!	!	!	!	!	!	!	!	!	!
=26	=26	=26	=26	=26	=26	=26	=26	=26	=26	=26	=26	=26	=26	=26	=26	=26	=26
4c 4E\	pa-	.	4g 4c/	.	.	4E\	pa-	.	4c\	pa-	.	4c/	pa-	.	4g/	pa-	.
4G 4C\	-cem	.	4e 4c/	.	.	4C\	-cem	.	4G\	-cem	.	4c/	-cem	.	4e/	-cem	.
4r	.	.	4r	.	.	4r	.	.	4r	.	.	4r	.	.	4r	.	.
!	!	!	!	!	!	!	!	!	!	!	!	!LO:LB:g=original	!	!	!	!	!
=27	=27	=27	=27	=27	=27	=27	=27	=27	=27	=27	=27	=27	=27	=27	=27	=27	=27
!	!	!	!	!	!LO:DY:b:t=p.:rj	!	!	!	!	!	!	!	!	!	!	!	!
4A 4F#X\	Do-	.	4e-X 4c/	.	p	4F#X\	Do-	.	4A\	Do-	.	4c/	Do-	.	4e-X/	Do-	.
!	!	!	!	!	!	!	!	!	!	!	!	!	!	!	!	!	!LO:HP:a
.	.	.	.	.	.	.	.	.	.	.	.	.	.	.	.	.	<
!	!	!	!	!	!	!LO:TX:a:t=P:problem=dynamika na pięciolinii	!	!	!	!	!	!	!	!LO:HP:a	!	!	!
4c 4A\	.	.	4f#X 4e-/	.	.	4A\	.	<	4c\	.	.	4e-X/	.	<	4f#X/	.	.
4e-X 4c\	-na	.	4a 4f#/	.	.	4c\	-na	.	4e-X\	-na	.	4f#X/	-na	.	4a/	-na	.
=28	=28	=28	=28	=28	=28	=28	=28	=28	=28	=28	=28	=28	=28	=28	=28	=28	=28
!	!	!	!	!	!	!LO:N:vis=2.	!	!	!	!	!	!	!	!	!	!	!
!LO:TX:a:t=P:problem=brak caudy w źródle	!	!	!	!	!	!LO:N:vis=2.	!	!	!	!	!	!	!	!	!	!	!LO:DY:rj
!LO:N:vis=1:xstem	!	!	!	!	!LO:DY:b:rj	!	!	!	!	!	!	!	!	!	!	!	!
2f#\ 2e-\	pa-	.	2.cc 2.a\	.	f	2e-X\	pa-	[	2f#X\	pa-	.	2.a/	pa-	[	2.cc\	pa-	[f
4e- 4F#X\	.	.	.	.	.	4F#X\	.	.	4d-X\	.	.	.	.	.	.	.	.
!	!	!	!	!	!	!	!	!	!LO:LB:g=original	!	!	!	!	!	!	!	!
=29	=29	=29	=29	=29	=29	=29	=29	=29	=29	=29	=29	=29	=29	=29	=29	=29	=29
2d 2G\	-cem	.	2b 2g/	.	.	2G\	-cem	.	2d\	-cem	.	2g/	-cem	.	2b\	-cem	.
4f 4Bn\	da	.	4dd 4b 4g\	.	.	4Bn\	da	.	4f\	da	.	4b\	da	.	4dd\	da	.
!LO:LB:g=original	!	!	!LO:LB:g=original	!	!	!	!	!	!	!	!	!	!	!	!LO:LB:g=original	!	!
=30	=30	=30	=30	=30	=30	=30	=30	=30	=30	=30	=30	=30	=30	=30	=30	=30	=30
*	*	*	*^	*	*	*	*	*	*	*	*	*	*	*	*	*	*
2e-X 2c\	pa-	.	4ee-X/	2g\	.	.	2c\	pa-	.	2e-X\	pa-	.	2g/	pa-	.	4ee-X\	pa-	.
.	.	.	(<8dd/L	.	.	.	.	.	.	.	.	.	.	.	.	(>8dd\L	.	.
.	.	.	8cc/J)	.	.	.	.	.	.	.	.	.	.	.	.	8cc\J)	.	.
4d 4G\	-cem	.	4bn/	4f\	.	.	4G\	-cem	.	4d\	-cem	.	4g/	-cem	.	4b\	-cem	.
*	*	*	*v	*v	*	*	*	*	*	*	*	*	*	*	*	*	*	*
=31	=31	=31	=31	=31	=31	=31	=31	=31	=31	=31	=31	=31	=31	=31	=31	=31	=31
*^	*	*	*	*	*	*	*	*	*	*	*	*	*	*	*	*	*
2c/	4A-X\	pa-	.	2cc 2e-X/	.	.	4A-X\	pa-	.	2c\	pa-	.	2e-X/	pa-	.	2cc\	pa-	.
.	8G\L	.	.	.	.	.	(>8G\L	.	.	.	.	.	.	.	.	.	.	.
.	8F\J	.	.	.	.	.	8F\J)	.	.	.	.	.	.	.	.	.	.	.
4G/	4E\	-cem	.	4b-X 4d-X/	.	.	4E\	-cem	.	4G\	-cem	.	4d-X/	-cem	.	4b-X\	-cem	.
!	!	!	!	!	!	!	!LO:LB:g=original	!	!	!	!	!	!	!	!	!	!	!
=32	=32	=32	=32	=32	=32	=32	=32	=32	=32	=32	=32	=32	=32	=32	=32	=32	=32	=32
2F/	2F\	Do-	.	2a-X 2c/	.	.	2F\	Do-	.	2F/	Do-	.	2c/	Do-	.	2a-X/	Do-	.
4c\ 4G	4ryy	-na	.	4g 4e-X/	.	.	4G\	-na	.	4c\	-na	.	4e-X/	-na	.	4g/	-na	.
*v	*v	*	*	*	*	*	*	*	*	*	*	*	*	*	*	*	*	*
!	!	!	!	!	!	!	!	!	!	!	!	!LO:LB:g=original	!	!	!	!	!
=33	=33	=33	=33	=33	=33	=33	=33	=33	=33	=33	=33	=33	=33	=33	=33	=33	=33
[>2.c [>2.A-X\	pa-	.	2.g 2.e-X/	.	.	2.A-X\	pa-	.	2.c\	pa-	.	(<2.e-X/	pa-	.	2.g/	pa-	.
=34	=34	=34	=34	=34	=34	=34	=34	=34	=34	=34	=34	=34	=34	=34	=34	=34	=34
!LO:N:vis=2	!	!	!	!	!	!	!	!	!	!	!	!	!	!	!	!	!
2.c] 2.A-X\]	.	.	2.f#X 2.d/	.	.	2.A\	.	.	2.c\	.	.	[<2.d/)	.	.	2.f#X/	.	.
=35	=35	=35	=35	=35	=35	=35	=35	=35	=35	=35	=35	=35	=35	=35	=35	=35	=35
*^	*	*	*	*	*	*	*	*	*	*	*	*	*	*	*	*	*
2Bn/	4G\	-cem	.	[>2.g 2.d/	.	.	(>4G\	-cem	.	2.Bn\	-cem	.	2.d/]	-cem	.	2.g/	-cem	.
.	4D\	.	.	.	.	.	4D\	.	.	.	.	.	.	.	.	.	.	.
4ryy	4BBn\	.	.	.	.	.	4BBn\)	.	.	.	.	.	.	.	.	.	.	.
!	!	!	!	!	!	!	!	!	!	!LO:LB:g=original	!	!	!	!	!	!	!	!
=36	=36	=36	=36	=36	=36	=36	=36	=36	=36	=36	=36	=36	=36	=36	=36	=36	=36	=36
4B/	4GG\	.	.	4g] 4d/	.	.	4GG\	cem	.	4Bn\	.	.	4d/	.	.	4g/	.	.
4rB	4rBB	.	.	4r	.	.	4r	.	p	4r	.	.	4r	.	.	4r	.	.
!	!	!	!LO:DY:b:t=p.:rj	!	!	!	!	!	!	!	!	!	!	!	!	!	!	!
4r	4G\	Do-	p	4r	.	.	4G\	Do-	.	4r	.	.	4r	.	.	4r	.	.
!LO:LB:g=original	!LO:LB:g=original	!	!	!LO:LB:g=original	!	!	!	!	!	!	!	!	!	!	!	!LO:LB:g=original	!	!
=37	=37	=37	=37	=37	=37	=37	=37	=37	=37	=37	=37	=37	=37	=37	=37	=37	=37	=37
*	*	*	*	*^	*	*	*	*	*	*	*	*	*	*	*	*	*	*
!	!	!	!	!LO:TX:a:t=1	!	!	!	!	!	!	!	!	!	!	!	!	!LO:TX:b:t=1	!	!
!	!	!	!	!LO:TX:a:t=P:problem="1" nad pauzą całonutową	!	!	!	!	!	!	!	!	!	!	!	!	!	!	!
4re	8A-X\L	-na	.	2.raa	4r	.	.	8A-X\L	.	.	4r	.	.	4r	.	p	2.r	.	.
.	8G\J	.	.	.	.	.	.	8G\J	-na	.	.	.	.	.	.	.	.	.	.
4re	4F\	no-	.	.	4r	.	.	4F\	no-	.	4r	.	.	4r	.	.	.	.	.
4c/	4E-X\	-bis	.	.	4g\	Do	.	4E-X\	-bis	.	4c\	Da	.	4g/	Do-	.	.	.	.
!	!	!	!	!	!	!	!	!LO:PB:g=original	!	!	!	!	!	!	!	!	!	!	!
=38	=38	=38	=38	=38	=38	=38	=38	=38	=38	=38	=38	=38	=38	=38	=38	=38	=38	=38	=38
4c/	8F\L	pa-	.	2rgg	8a-X\L	.	.	(>8F\L	pa-	.	(>4c\	pa-	.	8a-X/L	.	.	4r	.	.
.	8E-X\J	.	.	.	8g\J	.	.	8E-X\J)	.	.	.	.	.	8g/J	-na	.	.	.	.
4Bn/	4D\	.	.	.	4f\	.	.	4D\	.	.	4Bn\)	.	.	4f/	no-	.	4r	.	.
4c/	4C\	-cem	.	4ee-X/	4e-X\	.	.	4C\	-cem	.	4c\	-cem	.	4e-X/	-bis	.	4ee-X\	Do-	.
=39	=39	=39	=39	=39	=39	=39	=39	=39	=39	=39	=39	=39	=39	=39	=39	=39	=39	=39	=39
*	*^	*	*	*	*	*	*	*^	*	*	*	*	*	*	*	*	*	*	*
4d/	2G\	4BBn\	Do-	.	8gg/L	2g\	.	.	[>2G/	4BBn\	Do-	.	4d\	Do-	.	2g/	pa-	.	8gg\L	.	.
.	.	.	.	.	8ff/J	.	.	.	.	.	.	.	.	.	.	.	.	.	8ff\J	-na	.
4Bn/	.	4D\	.	.	4ee-X/	.	.	.	.	4D\	.	.	4B\	.	.	.	.	.	4ee-X\	no-	.
4B/ 4G	4ryy	4F\	-na	.	4dd/	4g\	.	.	4G/]	4F\	-na	.	4B\	-na	.	4g/	-cem	.	4dd\	-bis	.
*v	*v	*v	*	*	*	*	*	*	*v	*v	*	*	*	*	*	*	*	*	*	*	*
!	!	!	!	!	!	!	!	!	!	!	!	!	!LO:LB:g=original	!	!	!	!	!
=40	=40	=40	=40	=40	=40	=40	=40	=40	=40	=40	=40	=40	=40	=40	=40	=40	=40	=40
4c 4E-X\	pa-	.	8ff/L	4g\	.	.	4E-X\	pa-	.	4c\	pa-	.	4g/	pa-	.	(>8ff\L	pa-	.
.	.	.	8ee-X/J	.	.	.	.	.	.	.	.	.	.	.	.	8ee-X\J)	.	.
4d 4F\	-cem	.	4dd/	4a-X\	.	.	4F\	-cem	.	4d\	-cem	.	4a-X/	-cem	.	4dd\	-cem	.
4e-X 4F#X\	da	.	4cc/	4an\	.	.	4F#X\	da	.	4e-X\	da	.	4an/	da	.	4cc\	da	.
=41	=41	=41	=41	=41	=41	=41	=41	=41	=41	=41	=41	=41	=41	=41	=41	=41	=41	=41
*^	*	*	*	*	*	*	*	*	*	*	*	*	*	*	*	*	*	*
!LO:TX:a:t=P:problem=brak caudy w źródle	!	!	!	!	!	!	!	!	!	!	!	!	!	!	!	!	!	!	!
!LO:N:vis=2:xstem	!	!	!	!	!	!	!	!	!	!	!	!	!	!	!	!	!	!	!
!LO:N:vis=2	!	!	!	!	!	!	!	!	!	!	!	!	!	!	!	!	!	!	!
2.e-X/	4G\	pa-	.	2.cc/	2g\	.	.	4G\	pa-	.	2.e-X\	pa-	.	2g/	pa-	.	2.cc\	pa-	.
.	2A-X\	.	.	.	.	.	.	2A-X\	.	.	.	.	.	.	.	.	.	.	.
.	.	.	.	.	4f#X\	.	.	.	.	.	.	.	.	4f#X/	.	.	.	.	.
!	!	!	!	!	!	!	!	!	!	!	!LO:LB:g=original	!	!	!	!	!	!	!	!
=42	=42	=42	=42	=42	=42	=42	=42	=42	=42	=42	=42	=42	=42	=42	=42	=42	=42	=42	=42
!LO:N:vis=2	!	!	!	!LO:N:vis=2	!	!	!	!	!	!	!	!	!	!	!	!	!	!	!
2.d/	4A-X\	-cem	.	2.bnX/	4fnX\	.	.	4A-X\	-cem	.	2.d\	-cem	.	4fn/	-cem	.	2.bn\	-cem	.
.	4G\	do-	.	.	4g\	.	.	4G\	do-	.	.	.	.	4g/	do-	.	.	.	.
.	4F\	-na	.	.	4a-X\	.	.	4F\	-na	.	.	.	.	4a-X/	-na	.	.	.	.
!LO:PB:g=original	!LO:PB:g=original	!	!	!LO:PB:g=original	!LO:PB:g=original	!	!	!LO:LB:g=original	!	!	!	!	!	!	!	!	!	!	!
=43	=43	=43	=43	=43	=43	=43	=43	=43	=43	=43	=43	=43	=43	=43	=43	=43	=43	=43	=43
2.c\	2E-X\	pa-	.	2.cc/	2g\	.	.	2E-X\	pa-	.	2.c\	pa-	.	2.g/	pa-	.	2cc\	pa-	.
.	4En\	.	.	.	4b-X/	.	.	4En\	.	.	.	.	.	.	.	.	4b-X\	.	.
*v	*v	*	*	*	*	*	*	*	*	*	*	*	*	*	*	*	*	*	*
!	!	!	!	!	!	!	!	!	!	!	!	!	!	!	!	!LO:LB:g=original	!	!
=44	=44	=44	=44	=44	=44	=44	=44	=44	=44	=44	=44	=44	=44	=44	=44	=44	=44	=44
4c 4F\	-cem	.	4a-X/	4f\	.	.	4F\	-cem	.	4c\	-cem	.	4f/	-cem	.	4a-X/	-cem	.
4c 4G\	do-	.	4g/ 4e-X	4ryy	.	.	4G\	Do-	.	4c\	do-	.	4e-X/	Do-	.	4g/	do-	.
4c 4A-X\	-na	.	4f#X/	4e-\	.	.	4A-X\	-na	.	4c\	-na	.	4e-/	-na	.	4f#X/	-na	.
=45	=45	=45	=45	=45	=45	=45	=45	=45	=45	=45	=45	=45	=45	=45	=45	=45	=45	=45
*^	*	*	*	*	*	*	*	*	*	*	*	*	*	*	*	*	*	*
!	!LO:N:vis=2.	!	!	!	!	!	!	!	!	!	!	!	!	!	!	!	!	!	!
2c\	2G\	pa-	.	2.g/	2e-X\	.	.	2.G\	pa-	.	2c\	pa-	.	2e-X/	pa-	.	2.g/	pa-	.
4BnX/	4BnX\	.	.	.	4d\	.	.	.	.	.	4B\	.	.	4d/	.	.	.	.	.
*	*	*	*	*v	*v	*	*	*	*	*	*	*	*	*	*	*	*	*	*
!	!	!	!	!	!	!	!	!	!	!	!	!	!LO:LB:g=original	!	!	!	!	!
=46	=46	=46	=46	=46	=46	=46	=46	=46	=46	=46	=46	=46	=46	=46	=46	=46	=46	=46
2c\	2C\	-cem	.	2g 2en/	.	.	2C\	-cem	.	2c\	-cem	.	2en/	-cem	.	2g/	-cem	.
!	!	!	!	!	!	!LO:DY:rj	!	!	!	!	!	!	!	!	!	!	!	!
4c/	4r	do-	.	4r	.	p	4r	.	p	4c\	Do-	.	4r	.	.	4r	.	.
=47	=47	=47	=47	=47	=47	=47	=47	=47	=47	=47	=47	=47	=47	=47	=47	=47	=47	=47
!	!	!	!	!	!	!	!	!	!	!	!	!	!	!	!LO:DY:rj	!	!	!LO:DY:rj
8d-X/L	2C\	.	.	2b-X 2g\	.	.	2C\	Do-	.	8d-X\L	.	.	2g/	Do-	p	2b-X\	Do-	p
8B-X/J	.	-na	.	.	.	.	.	.	.	8B-X\J	-na	.	.	.	.	.	.	.
4G/	.	no-	.	.	.	.	.	.	.	4G/	no-	.	.	.	.	.	.	.
4E/	4C\	-bis	.	4b- 4g\	.	.	4C\	-na	.	4E/	-bis	.	4g/	-na	.	4b-\	-na	.
!	!	!	!	!	!	!	!	!	!	!LO:LB:g=original	!	!	!	!	!	!	!	!
=48	=48	=48	=48	=48	=48	=48	=48	=48	=48	=48	=48	=48	=48	=48	=48	=48	=48	=48
8F/L	2C\	pa-	.	2a-X 2f/	.	.	2C\	no-	.	8F/L	pa-	.	2f/	no-	.	2a-X\	no-	.
8A-X/J	.	.	.	.	.	.	.	.	.	8A-X/J	.	.	.	.	.	.	.	.
4c/	.	-cem	.	.	.	.	.	.	.	4c\	-cem	.	.	.	.	.	.	.
4c/	4C\	da	.	4a- 4f/	.	.	4C\	-bis	.	4c\	da	.	4f/	-bis	.	4a-\	-bis	.
*v	*v	*	*	*	*	*	*	*	*	*	*	*	*	*	*	*	*	*
!LO:LB:g=original	!	!	!LO:LB:g=original	!	!	!LO:LB:g=original	!	!	!	!	!	!	!	!	!	!	!
=49	=49	=49	=49	=49	=49	=49	=49	=49	=49	=49	=49	=49	=49	=49	=49	=49	=49
!	!	!	!	!	!	!	!	!	!LO:N:vis=2	!	!	!	!	!	!LO:TX:a:t=P:problem=dynamika na pięciolinii	!	!
2.Bn 2.C\	pa-	.	2dd 2f\	.	pp	2.C\	pa-	.	2.Bn\	pa-	.	2f/	pa-	.	2dd\	pa-	.
.	.	.	.	.	.	.	.	.	.	.	.	.	.	.	.	.	<
.	.	.	4ee-X 4g/	.	.	.	.	.	.	.	.	4g/	.	.	4ee-X\	.	[[
!	!	!	!	!	!	!	!	!	!	!	!	!	!	!	!LO:LB:g=original	!	!
=50	=50	=50	=50	=50	=50	=50	=50	=50	=50	=50	=50	=50	=50	=50	=50	=50	=50
*	*	*	*^	*	*	*	*	*	*	*	*	*	*	*	*	*	*
2c 2C\	-cem	.	2cc 2e-X/	4ryy	.	.	2C\	-cem	.	2c\	-cem	.	2e-X/	-cem	.	2cc\	-cem	.
.	.	.	.	4ryy	.	.	.	.	.	.	.	.	.	.	.	.	.	.
4r	.	.	4cc/	4r	Do-	.	4r	.	.	4r	.	.	4r	.	.	4cc\	do-	.
=51	=51	=51	=51	=51	=51	=51	=51	=51	=51	=51	=51	=51	=51	=51	=51	=51	=51	=51
!	!	!	!	!	!	!	!	!	!	!	!	!	!LO:TX:b:t=2	!	!	!	!	!
!	!	!	!	!	!	!	!	!	!	!	!	!	!LO:N:vis=0	!	!	!	!	!
4G 4En\	Do-	.	8dd-X/L	2.rd	.	.	4En\	Do-	.	4G\	Do-	.	1.r	.	.	8dd-X\L	.	.
.	.	.	8b-X/J	.	-na	.	.	.	.	.	.	.	.	.	.	8b-X\J	-na	.
!	!	!	!	!	!	!	!LO:TX:a:t=P:problem=dynamika na pięciolinii	!	!	!	!	!	!	!	!	!	!	!
4B 4G\	.	.	4g/	.	no-	.	4G\	.	<	4B\	.	.	.	.	.	4g/	no-	.
4d-X 4B\	-na	.	4e/	.	-bis	.	4B-X\	-na	.	4d-X\	-na	.	.	.	.	4e/	-bis	.
=52	=52	=52	=52	=52	=52	=52	=52	=52	=52	=52	=52	=52	=52	=52	=52	=52	=52	=52
4c 4A-X\	no-	.	8f/L	2.rd	pa-	.	4A-X\	no-	[>	4c\	no-	.	.	.	.	8f/L	pa-	.
.	.	.	8a-X/J	.	.	.	.	.	.	.	.	.	.	.	.	8a-X/J	.	.
4A- 4F\	.	.	4cc/	.	-cem	.	4F\	.	]	4A-X\	.	.	.	.	.	4cc\	-cem	.
4A- 4F\	-bis	.	4ff/	.	da	.	4F\	-bis	.	4A-\	-bis	.	.	.	.	4ff\	da	.
=53	=53	=53	=53	=53	=53	=53	=53	=53	=53	=53	=53	=53	=53	=53	=53	=53	=53	=53
2.A-X 2.F 2.C\	pa-	.	2.a-X/	2.Bn/	.	.	2.F 2.C\	pa-	.	2.A-X\	pa-	.	2.Bn/	pa-	.	2a-X/	pa-	.
.	.	.	.	.	.	.	.	.	.	.	.	.	.	.	.	4f/	.	.
*	*	*	*v	*v	*	*	*	*	*	*	*	*	*	*	*	*	*	*
!	!	!	!	!	!	!	!	!	!LO:LB:g=original	!	!	!LO:LB:g=original	!	!	!	!	!
=||54	=54	=54	=||54	=54	=54	=54	=54	=54	=54	=54	=54	=54	=54	=54	=54	=54	=54
!	!	!	!LO:TX:a:t=Lento	!	!	!	!	!	!	!	!	!LO:TX:a:i:t=Lento	!	!	!	!	!
4G 4E 4C\	-cem	.	4e 4c/	.	.	4En 4C\	-cem	.	4G/	-cem	.	4c/	-cem	.	4en/	-cem	.
4E 4C\	Do-	.	4cc 4c/	.	.	4C\	Do-	.	4E/	Do-	.	4c/	Do-	.	4cc\	Do-	.
4G 4C\	-na	.	4bn 4c/	.	.	4C\	-na	.	4G/	-na	.	4c/	-na	.	4bn\	-na	.
!LO:LB:g=original	!	!	!LO:LB:g=original	!	!	!LO:LB:g=original	!	!	!	!	!	!	!	!	!LO:LB:g=original	!	!
=55	=55	=55	=55	=55	=55	=55	=55	=55	=55	=55	=55	=55	=55	=55	=55	=55	=55
*^	*	*	*^	*	*	*	*	*	*	*	*	*	*	*	*	*	*
4F/	2C\	no-	.	4a/	2c\	.	.	2C\	no-	.	4F/	no-	.	2c/	no-	.	4a\	no-	.
4G/	.	.	.	4b/	.	.	.	.	.	.	4G/	.	.	.	.	.	4bn\	.	.
4A/	4C\	-bis	.	4cc/	4c\	.	.	4C\	-bis	.	4A/	-bis	.	4c/	-bis	.	4cc\	-bis	.
=56	=56	=56	=56	=56	=56	=56	=56	=56	=56	=56	=56	=56	=56	=56	=56	=56	=56	=56	=56
4c/	2.G\	pa-	.	2dd/	2.f\	.	.	2.G\	pa-	.	4c\	pa-	.	2f/	pa-	.	(>2dd\	pa-	.
2B/	.	.	.	.	.	.	.	.	.	.	2B\	.	.	.	.	.	.	.	.
.	.	.	.	4ee 4g/	.	.	.	.	.	.	.	.	.	4g/	.	.	4ee\)	.	.
*v	*v	*	*	*v	*v	*	*	*	*	*	*	*	*	*	*	*	*	*	*
=57	=57	=57	=57	=57	=57	=57	=57	=57	=57	=57	=57	=57	=57	=57	=57	=57	=57
2c 2C\	-cem	.	2cc 2e/	.	.	4C\	-cem	.	2c\	-cem	.	2e/	-cem	.	4cc\	-cem	.
.	.	.	.	.	.	4r	.	.	.	.	.	.	.	.	4r	.	.
4r	.	.	4r	.	pp	4r	.	.	4r	.	.	4r	.	.	4r	.	.
=58	=58	=58	=58	=58	=58	=58	=58	=58	=58	=58	=58	=58	=58	=58	=58	=58	=58
*^	*	*	*	*	*	*	*	*	*	*	*	*	*	*	*	*	*
!	!	!	!	!	!	!	!LO:TX:a:i:t=Lento	!	!	!	!	!	!LO:TX:b:t=2	!	!	!LO:TX:b:t=2	!	!
!	!	!	!	!	!	!	!	!	!	!	!	!	!LO:N:vis=0	!	!	!LO:N:vis=0	!	!
2c/	2E 2C\	Do-	.	2.ryy	.	.	2C\	Do-	.	2c\	Do-	.	1.r	.	.	1.r	.	.
4B/	4G 4C\	-na	.	.	.	.	4C\	-na	.	4B\	-na	.	.	.	.	.	.	.
=59	=59	=59	=59	=59	=59	=59	=59	=59	=59	=59	=59	=59	=59	=59	=59	=59	=59	=59
4A 4F/	2C\	no-	.	2.ryy	.	.	2C\	no-	.	4A\	no-	.	.	.	.	.	.	.
4B 4G/	.	.	.	.	.	.	.	.	.	4B\	.	.	.	.	.	.	.	.
4c/ 4A	4C\	-bis	.	.	.	.	4C\	-bis	.	4c\	-bis	.	.	.	.	.	.	.
!	!	!	!	!	!	!	!	!	!	!LO:LB:g=original	!	!	!	!	!	!	!	!
=60	=60	=60	=60	=60	=60	=60	=60	=60	=60	=60	=60	=60	=60	=60	=60	=60	=60	=60
*	*	*	*	*^	*	*	*^	*	*	*	*	*	*	*	*	*	*	*
4c/	2F 2GG\	pa-	.	2.g/	2d\	.	.	2F 2GG\	2ryy	pa-	.	4c\	pa-	.	2d/	pa-	.	2.g/	pa-	.
2B/	.	.	.	.	.	.	.	.	.	.	.	2B\	.	.	.	.	.	.	.	.
.	4G\	.	.	.	4e\	.	.	4G/	4G\	.	.	.	.	.	4e/	.	.	.	.	.
*v	*v	*	*	*	*	*	*	*v	*v	*	*	*	*	*	*	*	*	*	*	*
!	!	!	!	!	!	!	!LO:LB:g=original	!	!	!	!	!	!LO:LB:g=original	!	!	!	!	!
=61	=61	=61	=61	=61	=61	=61	=61	=61	=61	=61	=61	=61	=61	=61	=61	=61	=61	=61
2c 2E 2C\	-cem	.	2g/	2c\	.	.	2E 2C\	-cem	.	2c\	-cem	.	2c/	-cem	.	2g/	-cem	.
4r	.	.	4r	4ryy	.	.	4r	.	pp	4r	.	.	4r	.	.	4r	.	.
*	*	*	*v	*v	*	*	*	*	*	*	*	*	*	*	*	*	*	*
!LO:LB:g=original	!	!	!LO:LB:g=original	!	!	!	!	!	!	!	!	!	!	!	!LO:LB:g=original	!	!
=62	=62	=62	=62	=62	=62	=62	=62	=62	=62	=62	=62	=62	=62	=62	=62	=62	=62
!	!	!	!	!	!LO:DY:rj	!	!	!	!	!	!	!	!	!LO:DY:rj	!	!	!
2G 2C\	Do-	.	2e 2c/	.	pp	2C\	Do-	.	2G/	Do-	.	2c/	Do-	pp	2e/	Do-	.
4G 4C\	-na	.	4e 4c/	.	.	4C\	-na	.	4G/	-na	.	4c/	-na	.	4e/	-na	.
=63	=63	=63	=63	=63	=63	=63	=63	=63	=63	=63	=63	=63	=63	=63	=63	=63	=63
2.G 2.E 2.C\	pa-	.	2.c/	.	.	2.E 2.C\	pa-	.	2.G/	pa-	.	2.c/	pa-	.	2.c/	pa-	.
=64	=64	=64	=64	=64	=64	=64	=64	=64	=64	=64	=64	=64	=64	=64	=64	=64	=64
4G 4E 4C\	-cem	.	4c/	.	.	4E 4C\	-cem	.	2G/	-cem	.	4c/	-cem	.	4c/	-cem	.
4r	.	.	4r	.	.	4r	.	.	.	.	.	4r	.	.	4r	.	.
4r	.	.	4r	.	.	4r	.	.	4r	.	.	4r	.	.	4r	.	.
=65	=65	=65	=65	=65	=65	=65	=65	=65	=65	=65	=65	=65	=65	=65	=65	=65	=65
!LO:TX:a:t=1	!	!	!	!	!	!	!	!	!	!	!	!LO:TX:a:t=P:problem=brak taktu w źródle	!	!	!LO:TX:a:t=1	!	!
2.r	.	.	2.r	.	.	2.r	.	.	2.r	.	.	2.ryy	.	.	2.r	.	.
!LO:TX:a:i:t=Fine	!	!	!	!	!	!LO:TX:b:i:t=Fine	!	!	!	!	!	!	!	!	!	!	!
==	==	==	==	==	==	==	==	==	==	==	==	==	==	==	==	==	==
*-	*-	*-	*-	*-	*-	*-	*-	*-	*-	*-	*-	*-	*-	*-	*-	*-	*-
!!!system-decoration: [g1]{s5,s6}
!!!RDF**kern: > = above
!!!RDF**kern: < = below
!!!EED: Mateusz Mrugas
!!!EST: 2021-01-18
!!!ENC: Tomasz Grochalski
!!!END: 2021-01-08
